;FLAVOR:Marlin
;TIME:26402
;Filament used: 28.4407m
;Layer height: 0.3
;MINX:18.6
;MINY:13.6
;MINZ:0.2
;MAXX:191.4
;MAXY:196.4
;MAXZ:3.8
;Generated with Cura_SteamEngine 4.8.0
M140 S60
M105
M190 S60
M104 S210
M105
M109 S210
M82 ;absolute extrusion mode
G21 ;metric values
G90 ;absolute positioning
M82 ;set extruder to absolute mode
M107 ;start with the fan off
G28 X0 Y0 ;move X/Y to min endstops
G28 Z0 ;move Z to min endstops
G1 Z15.0 F100 ;move the platform down 15mm
G92 E0 ;zero the extruded length
G1 F200 E3 ;extrude 3mm of feed stock
G92 E0 ;zero the extruded length again
G1 F100
G0 Y20 F100
M117 Printing...
G5
G92 E0
G92 E0
G1 F2400 E-6
;LAYER_COUNT:13
;LAYER:0
M106 S255
M204 S3000
M205 X10 Y10
G1 F600 Z0.275
G0 F3000 X20.05 Y15.963 Z0.275
M204 S1800
M205 X8 Y8
;TYPE:SKIRT
G1 F600 Z0.2
G1 F2400 E0
G1 X20.533 Y15.435 E0.03332
G1 X21.071 Y14.964 E0.06662
G1 X21.659 Y14.556 E0.09994
G1 X22.288 Y14.216 E0.13324
G1 X22.952 Y13.949 E0.16656
G1 X23.641 Y13.757 E0.19987
G1 X24.347 Y13.643 E0.23317
G1 X25.151 Y13.603 E0.27065
G1 X25.33 Y13.6 E0.27899
G1 X184.293 Y13.6 E7.68097
G1 X185.083 Y13.611 E7.71776
G1 X185.796 Y13.661 E7.75104
G1 X186.5 Y13.79 E7.78437
G1 X187.184 Y13.998 E7.81766
G1 X187.841 Y14.28 E7.85095
G1 X188.463 Y14.634 E7.88427
G1 X189.041 Y15.055 E7.91757
G1 X189.569 Y15.538 E7.95089
G1 X190.039 Y16.076 E7.98416
G1 X190.447 Y16.664 E8.01748
G1 X190.786 Y17.294 E8.05079
G1 X191.053 Y17.957 E8.08408
G1 X191.244 Y18.647 E8.11741
G1 X191.357 Y19.353 E8.15071
G1 X191.397 Y20.15 E8.18786
G1 X191.4 Y20.33 E8.19625
G1 X191.4 Y189.343 E16.0662
G1 X191.391 Y190.07 E16.10006
G1 X191.342 Y190.784 E16.13338
G1 X191.214 Y191.488 E16.1667
G1 X191.008 Y192.173 E16.20001
G1 X190.727 Y192.83 E16.23328
G1 X190.374 Y193.453 E16.26662
G1 X189.954 Y194.032 E16.29993
G1 X189.472 Y194.56 E16.33322
G1 X188.935 Y195.032 E16.36651
G1 X188.347 Y195.44 E16.39984
G1 X187.718 Y195.781 E16.43315
G1 X187.055 Y196.049 E16.46645
G1 X186.366 Y196.241 E16.49976
G1 X185.66 Y196.356 E16.53306
G1 X184.849 Y196.397 E16.57087
G1 X184.67 Y196.4 E16.57921
G1 X25.624 Y196.399 E23.98506
G1 X24.926 Y196.39 E24.01756
G1 X24.213 Y196.341 E24.05084
G1 X23.509 Y196.213 E24.08416
G1 X22.824 Y196.007 E24.11747
G1 X22.167 Y195.725 E24.15076
G1 X21.545 Y195.372 E24.18406
G1 X20.966 Y194.952 E24.21737
G1 X20.437 Y194.47 E24.25069
G1 X19.966 Y193.932 E24.28399
G1 X19.558 Y193.345 E24.31728
G1 X19.218 Y192.715 E24.35061
G1 X18.95 Y192.052 E24.38391
G1 X18.758 Y191.363 E24.41721
G1 X18.644 Y190.657 E24.45051
G1 X18.602 Y189.831 E24.48903
G1 X18.6 Y189.658 E24.49708
G1 X18.601 Y20.587 E32.36974
G1 X18.61 Y19.922 E32.4007
G1 X18.659 Y19.209 E32.43398
G1 X18.788 Y18.505 E32.46731
G1 X18.995 Y17.821 E32.50059
G1 X19.277 Y17.163 E32.53392
G1 X19.63 Y16.541 E32.56722
G1 X20.05 Y15.963 E32.60049
M204 S3000
M205 X10 Y10
G0 F3000 X20.603 Y16.176
M204 S1800
M205 X8 Y8
G1 F2400 X21.08 Y15.688 E32.63227
G1 X21.612 Y15.259 E32.66409
G1 X22.19 Y14.894 E32.69592
G1 X22.807 Y14.6 E32.72775
G1 X23.453 Y14.38 E32.75952
G1 X24.121 Y14.237 E32.79133
G1 X24.845 Y14.171 E32.82519
G1 X25.33 Y14.16 E32.84778
G1 X184.293 Y14.16 E40.24976
G1 X185.075 Y14.171 E40.28618
G1 X185.756 Y14.22 E40.31797
G1 X186.427 Y14.349 E40.34978
G1 X187.078 Y14.556 E40.38159
G1 X187.701 Y14.837 E40.41342
G1 X188.287 Y15.189 E40.44525
G1 X188.827 Y15.607 E40.47705
G1 X189.315 Y16.085 E40.50885
G1 X189.744 Y16.617 E40.54068
G1 X190.108 Y17.195 E40.57248
G1 X190.402 Y17.812 E40.60431
G1 X190.621 Y18.459 E40.63611
G1 X190.764 Y19.127 E40.66792
G1 X190.829 Y19.846 E40.70154
G1 X190.84 Y20.33 E40.72408
G1 X190.84 Y189.336 E48.59371
G1 X190.831 Y190.063 E48.62756
G1 X190.782 Y190.745 E48.6594
G1 X190.654 Y191.416 E48.69121
G1 X190.449 Y192.068 E48.72304
G1 X190.169 Y192.691 E48.75484
G1 X189.819 Y193.277 E48.78662
G1 X189.402 Y193.819 E48.81847
G1 X188.925 Y194.308 E48.85028
G1 X188.394 Y194.737 E48.88206
G1 X187.816 Y195.102 E48.91389
G1 X187.2 Y195.397 E48.9457
G1 X186.553 Y195.618 E48.97753
G1 X185.885 Y195.762 E49.00935
G1 X185.155 Y195.829 E49.04349
G1 X184.67 Y195.84 E49.06608
G1 X25.632 Y195.84 E56.47155
G1 X24.934 Y195.831 E56.50406
G1 X24.252 Y195.782 E56.5359
G1 X23.581 Y195.654 E56.5677
G1 X22.93 Y195.448 E56.5995
G1 X22.306 Y195.168 E56.63135
G1 X21.72 Y194.817 E56.66315
G1 X21.179 Y194.4 E56.69496
G1 X20.69 Y193.922 E56.7268
G1 X20.261 Y193.391 E56.75859
G1 X19.896 Y192.813 E56.79042
G1 X19.602 Y192.197 E56.8222
G1 X19.381 Y191.55 E56.85404
G1 X19.237 Y190.882 E56.88586
G1 X19.171 Y190.149 E56.92013
G1 X19.16 Y189.658 E56.94299
G1 X19.161 Y20.595 E64.81528
G1 X19.17 Y19.93 E64.84624
G1 X19.219 Y19.249 E64.87804
G1 X19.347 Y18.577 E64.90989
G1 X19.553 Y17.926 E64.94169
G1 X19.834 Y17.303 E64.97351
G1 X20.185 Y16.717 E65.00532
G1 X20.603 Y16.176 E65.03715
M204 S3000
M205 X10 Y10
G0 F3000 X20.74 Y16.902
M204 S1800
M205 X8 Y8
G1 F2400 X21.154 Y16.401 E65.06741
G1 X21.626 Y15.955 E65.09765
G1 X22.149 Y15.571 E65.12786
G1 X22.716 Y15.253 E65.15813
G1 X23.317 Y15.007 E65.18837
G1 X23.944 Y14.837 E65.21862
G1 X24.861 Y14.731 E65.26161
G1 X25.33 Y14.72 E65.28345
G1 X184.293 Y14.72 E72.68543
G1 X185.067 Y14.731 E72.72148
G1 X185.714 Y14.78 E72.75169
G1 X186.351 Y14.908 E72.78195
G1 X186.967 Y15.114 E72.81219
G1 X187.554 Y15.394 E72.84248
G1 X188.101 Y15.743 E72.87269
G1 X188.602 Y16.157 E72.90295
G1 X189.047 Y16.63 E72.93319
G1 X189.432 Y17.154 E72.96347
G1 X189.749 Y17.721 E72.99372
G1 X189.994 Y18.322 E73.02394
G1 X190.163 Y18.949 E73.05418
G1 X190.269 Y19.862 E73.09697
G1 X190.28 Y20.33 E73.11877
G1 X190.28 Y189.329 E80.98807
G1 X190.271 Y190.056 E81.02193
G1 X190.223 Y190.704 E81.05218
G1 X190.095 Y191.341 E81.08244
G1 X189.891 Y191.958 E81.1127
G1 X189.612 Y192.545 E81.14296
G1 X189.264 Y193.093 E81.17319
G1 X188.851 Y193.594 E81.20342
G1 X188.379 Y194.041 E81.23369
G1 X187.856 Y194.426 E81.26393
G1 X187.29 Y194.744 E81.29416
G1 X186.688 Y194.991 E81.32446
G1 X186.062 Y195.161 E81.35467
G1 X185.139 Y195.269 E81.39794
G1 X184.67 Y195.28 E81.41978
G1 X25.639 Y195.28 E88.82493
G1 X24.941 Y195.271 E88.85744
G1 X24.293 Y195.222 E88.8877
G1 X23.656 Y195.095 E88.91794
G1 X23.04 Y194.89 E88.94817
G1 X22.453 Y194.611 E88.97844
G1 X21.905 Y194.262 E89.00869
G1 X21.404 Y193.849 E89.03892
G1 X20.957 Y193.377 E89.06919
G1 X20.572 Y192.854 E89.09943
G1 X20.254 Y192.287 E89.1297
G1 X20.008 Y191.686 E89.15994
G1 X19.838 Y191.059 E89.19019
G1 X19.731 Y190.134 E89.23355
G1 X19.72 Y189.658 E89.25572
G1 X19.72 Y20.603 E97.12763
G1 X19.729 Y19.938 E97.1586
G1 X19.778 Y19.29 E97.18886
G1 X19.906 Y18.653 E97.21911
G1 X20.111 Y18.036 E97.24939
G1 X20.391 Y17.45 E97.27963
G1 X20.74 Y16.902 E97.30988
M204 S3000
M205 X10 Y10
G1 F2400 E91.30988
;MESH:bottom.stl
G0 F3000 X24.335 Y20.854
G0 X25.854 Y20.854
G0 X183.6 Y188.6
M204 S1800
M205 X8 Y8
;TYPE:WALL-INNER
G1 F2400 E97.30988
G1 F1500 X26.4 Y188.6 E104.62977
G1 X26.4 Y21.4 E112.4153
G1 X183.6 Y21.4 E119.73519
G1 X183.6 Y188.6 E127.52073
M204 S3000
M205 X10 Y10
G0 F3000 X184.16 Y189.16
M204 S1800
M205 X8 Y8
G1 F1500 X25.84 Y189.16 E134.89277
G1 X25.84 Y20.84 E142.73045
G1 X184.16 Y20.84 E150.1025
G1 X184.16 Y189.16 E157.94018
M204 S3000
M205 X10 Y10
G0 F3000 X184.72 Y189.72
M204 S1800
M205 X8 Y8
;TYPE:WALL-OUTER
G1 F1500 X25.28 Y189.72 E165.36438
G1 X25.28 Y20.28 E173.25421
G1 X184.72 Y20.28 E180.67841
G1 X184.72 Y189.72 E188.56824
M204 S3000
M205 X10 Y10
G0 F3000 X184.52 Y189.72
G0 X184.09 Y189.09
G0 X183.05 Y188.05
M204 S1800
M205 X8 Y8
;TYPE:SKIN
G1 F1500 X26.95 Y188.05 E195.83691
G1 X26.95 Y21.95 E203.57122
G1 X183.05 Y21.95 E210.83989
G1 X183.05 Y188.05 E218.57421
M204 S3000
M205 X10 Y10
G0 F3000 X27.813 Y187.789
M204 S1800
M205 X8 Y8
G1 F1500 X27.209 Y187.185 E218.61398
M204 S3000
M205 X10 Y10
G0 F3000 X27.209 Y186.393
M204 S1800
M205 X8 Y8
G1 F1500 X28.605 Y187.789 E218.70591
M204 S3000
M205 X10 Y10
G0 F3000 X29.397 Y187.789
M204 S1800
M205 X8 Y8
G1 F1500 X27.209 Y185.601 E218.84999
M204 S3000
M205 X10 Y10
G0 F3000 X27.209 Y184.809
M204 S1800
M205 X8 Y8
G1 F1500 X30.189 Y187.789 E219.04623
M204 S3000
M205 X10 Y10
G0 F3000 X30.981 Y187.789
M204 S1800
M205 X8 Y8
G1 F1500 X27.209 Y184.017 E219.29462
M204 S3000
M205 X10 Y10
G0 F3000 X27.209 Y183.225
M204 S1800
M205 X8 Y8
G1 F1500 X31.773 Y187.789 E219.59517
M204 S3000
M205 X10 Y10
G0 F3000 X32.565 Y187.789
M204 S1800
M205 X8 Y8
G1 F1500 X27.209 Y182.433 E219.94787
M204 S3000
M205 X10 Y10
G0 F3000 X27.209 Y181.641
M204 S1800
M205 X8 Y8
G1 F1500 X33.357 Y187.789 E220.35273
M204 S3000
M205 X10 Y10
G0 F3000 X34.149 Y187.789
M204 S1800
M205 X8 Y8
G1 F1500 X27.209 Y180.849 E220.80974
M204 S3000
M205 X10 Y10
G0 F3000 X27.209 Y180.057
M204 S1800
M205 X8 Y8
G1 F1500 X34.94 Y187.789 E221.31887
M204 S3000
M205 X10 Y10
G0 F3000 X35.732 Y187.789
M204 S1800
M205 X8 Y8
G1 F1500 X27.209 Y179.265 E221.88016
M204 S3000
M205 X10 Y10
G0 F3000 X27.209 Y178.473
M204 S1800
M205 X8 Y8
G1 F1500 X36.524 Y187.789 E222.4936
M204 S3000
M205 X10 Y10
G0 F3000 X37.316 Y187.789
M204 S1800
M205 X8 Y8
G1 F1500 X27.209 Y177.681 E223.1592
M204 S3000
M205 X10 Y10
G0 F3000 X27.209 Y176.889
M204 S1800
M205 X8 Y8
G1 F1500 X38.108 Y187.789 E223.87695
M204 S3000
M205 X10 Y10
G0 F3000 X38.9 Y187.789
M204 S1800
M205 X8 Y8
G1 F1500 X27.209 Y176.097 E224.64685
M204 S3000
M205 X10 Y10
G0 F3000 X27.209 Y175.305
M204 S1800
M205 X8 Y8
G1 F1500 X39.692 Y187.789 E225.46891
M204 S3000
M205 X10 Y10
G0 F3000 X40.484 Y187.789
M204 S1800
M205 X8 Y8
G1 F1500 X27.209 Y174.513 E226.34313
M204 S3000
M205 X10 Y10
G0 F3000 X27.209 Y173.721
M204 S1800
M205 X8 Y8
G1 F1500 X41.276 Y187.789 E227.2695
M204 S3000
M205 X10 Y10
G0 F3000 X42.068 Y187.789
M204 S1800
M205 X8 Y8
G1 F1500 X27.209 Y172.93 E228.24799
M204 S3000
M205 X10 Y10
G0 F3000 X27.209 Y172.138
M204 S1800
M205 X8 Y8
G1 F1500 X42.86 Y187.789 E229.27863
M204 S3000
M205 X10 Y10
G0 F3000 X43.652 Y187.789
M204 S1800
M205 X8 Y8
G1 F1500 X27.209 Y171.346 E230.36143
M204 S3000
M205 X10 Y10
G0 F3000 X27.209 Y170.554
M204 S1800
M205 X8 Y8
G1 F1500 X44.444 Y187.789 E231.49638
M204 S3000
M205 X10 Y10
G0 F3000 X45.236 Y187.789
M204 S1800
M205 X8 Y8
G1 F1500 X27.209 Y169.762 E232.68349
M204 S3000
M205 X10 Y10
G0 F3000 X27.209 Y168.97
M204 S1800
M205 X8 Y8
G1 F1500 X46.028 Y187.789 E233.92276
M204 S3000
M205 X10 Y10
G0 F3000 X46.82 Y187.789
M204 S1800
M205 X8 Y8
G1 F1500 X27.209 Y168.178 E235.21417
M204 S3000
M205 X10 Y10
G0 F3000 X27.209 Y167.386
M204 S1800
M205 X8 Y8
G1 F1500 X47.612 Y187.789 E236.55775
M204 S3000
M205 X10 Y10
G0 F3000 X48.404 Y187.789
M204 S1800
M205 X8 Y8
G1 F1500 X27.209 Y166.594 E237.95347
M204 S3000
M205 X10 Y10
G0 F3000 X27.209 Y165.802
M204 S1800
M205 X8 Y8
G1 F1500 X49.196 Y187.789 E239.40136
M204 S3000
M205 X10 Y10
G0 F3000 X49.988 Y187.789
M204 S1800
M205 X8 Y8
G1 F1500 X27.209 Y165.01 E240.90139
M204 S3000
M205 X10 Y10
G0 F3000 X27.209 Y164.218
M204 S1800
M205 X8 Y8
G1 F1500 X50.78 Y187.789 E242.45358
M204 S3000
M205 X10 Y10
G0 F3000 X51.572 Y187.789
M204 S1800
M205 X8 Y8
G1 F1500 X27.209 Y163.426 E244.05793
M204 S3000
M205 X10 Y10
G0 F3000 X27.209 Y162.634
M204 S1800
M205 X8 Y8
G1 F1500 X52.364 Y187.789 E245.71443
M204 S3000
M205 X10 Y10
G0 F3000 X53.156 Y187.789
M204 S1800
M205 X8 Y8
G1 F1500 X27.209 Y161.842 E247.42308
M204 S3000
M205 X10 Y10
G0 F3000 X27.209 Y161.05
M204 S1800
M205 X8 Y8
G1 F1500 X53.948 Y187.789 E249.18389
M204 S3000
M205 X10 Y10
G0 F3000 X54.739 Y187.789
M204 S1800
M205 X8 Y8
G1 F1500 X27.209 Y160.258 E250.99682
M204 S3000
M205 X10 Y10
G0 F3000 X27.209 Y159.466
M204 S1800
M205 X8 Y8
G1 F1500 X55.531 Y187.789 E252.86191
M204 S3000
M205 X10 Y10
G0 F3000 X56.323 Y187.789
M204 S1800
M205 X8 Y8
G1 F1500 X27.209 Y158.674 E254.77914
M204 S3000
M205 X10 Y10
G0 F3000 X27.209 Y157.882
M204 S1800
M205 X8 Y8
G1 F1500 X57.115 Y187.789 E256.74854
M204 S3000
M205 X10 Y10
G0 F3000 X57.907 Y187.789
M204 S1800
M205 X8 Y8
G1 F1500 X27.209 Y157.09 E258.77009
M204 S3000
M205 X10 Y10
G0 F3000 X27.209 Y156.298
M204 S1800
M205 X8 Y8
G1 F1500 X58.699 Y187.789 E260.84379
M204 S3000
M205 X10 Y10
G0 F3000 X59.491 Y187.789
M204 S1800
M205 X8 Y8
G1 F1500 X27.209 Y155.506 E262.96965
M204 S3000
M205 X10 Y10
G0 F3000 X27.209 Y154.714
M204 S1800
M205 X8 Y8
G1 F1500 X60.283 Y187.789 E265.14766
M204 S3000
M205 X10 Y10
G0 F3000 X61.075 Y187.789
M204 S1800
M205 X8 Y8
G1 F1500 X27.209 Y153.923 E267.37779
M204 S3000
M205 X10 Y10
G0 F3000 X27.209 Y153.131
M204 S1800
M205 X8 Y8
G1 F1500 X61.867 Y187.789 E269.66008
M204 S3000
M205 X10 Y10
G0 F3000 X62.659 Y187.789
M204 S1800
M205 X8 Y8
G1 F1500 X27.209 Y152.339 E271.99453
M204 S3000
M205 X10 Y10
G0 F3000 X27.209 Y151.547
M204 S1800
M205 X8 Y8
G1 F1500 X63.451 Y187.789 E274.38112
M204 S3000
M205 X10 Y10
G0 F3000 X64.243 Y187.789
M204 S1800
M205 X8 Y8
G1 F1500 X27.209 Y150.755 E276.81988
M204 S3000
M205 X10 Y10
G0 F3000 X27.209 Y149.963
M204 S1800
M205 X8 Y8
G1 F1500 X65.035 Y187.789 E279.31078
M204 S3000
M205 X10 Y10
G0 F3000 X65.827 Y187.789
M204 S1800
M205 X8 Y8
G1 F1500 X27.209 Y149.171 E281.85384
M204 S3000
M205 X10 Y10
G0 F3000 X27.209 Y148.379
M204 S1800
M205 X8 Y8
G1 F1500 X66.619 Y187.789 E284.44906
M204 S3000
M205 X10 Y10
G0 F3000 X67.411 Y187.789
M204 S1800
M205 X8 Y8
G1 F1500 X27.209 Y147.587 E287.09643
M204 S3000
M205 X10 Y10
G0 F3000 X27.209 Y146.795
M204 S1800
M205 X8 Y8
G1 F1500 X68.203 Y187.789 E289.79596
M204 S3000
M205 X10 Y10
G0 F3000 X68.995 Y187.789
M204 S1800
M205 X8 Y8
G1 F1500 X27.209 Y146.003 E292.54763
M204 S3000
M205 X10 Y10
G0 F3000 X27.209 Y145.211
M204 S1800
M205 X8 Y8
G1 F1500 X69.787 Y187.789 E295.35147
M204 S3000
M205 X10 Y10
G0 F3000 X70.579 Y187.789
M204 S1800
M205 X8 Y8
G1 F1500 X27.209 Y144.419 E298.20746
M204 S3000
M205 X10 Y10
G0 F3000 X27.209 Y143.627
M204 S1800
M205 X8 Y8
G1 F1500 X71.371 Y187.789 E301.1156
M204 S3000
M205 X10 Y10
G0 F3000 X72.163 Y187.789
M204 S1800
M205 X8 Y8
G1 F1500 X27.209 Y142.835 E304.0759
M204 S3000
M205 X10 Y10
G0 F3000 X27.209 Y142.043
M204 S1800
M205 X8 Y8
G1 F1500 X72.955 Y187.789 E307.08835
M204 S3000
M205 X10 Y10
G0 F3000 X73.746 Y187.789
M204 S1800
M205 X8 Y8
G1 F1500 X27.209 Y141.251 E310.15292
M204 S3000
M205 X10 Y10
G0 F3000 X27.209 Y140.459
M204 S1800
M205 X8 Y8
G1 F1500 X74.538 Y187.789 E313.26965
M204 S3000
M205 X10 Y10
G0 F3000 X75.33 Y187.789
M204 S1800
M205 X8 Y8
G1 F1500 X27.209 Y139.667 E316.43854
M204 S3000
M205 X10 Y10
G0 F3000 X27.209 Y138.875
M204 S1800
M205 X8 Y8
G1 F1500 X76.122 Y187.789 E319.65957
M204 S3000
M205 X10 Y10
G0 F3000 X76.914 Y187.789
M204 S1800
M205 X8 Y8
G1 F1500 X27.209 Y138.083 E322.93276
M204 S3000
M205 X10 Y10
G0 F3000 X27.209 Y137.291
M204 S1800
M205 X8 Y8
G1 F1500 X77.706 Y187.789 E326.25811
M204 S3000
M205 X10 Y10
G0 F3000 X78.498 Y187.789
M204 S1800
M205 X8 Y8
G1 F1500 X27.209 Y136.499 E329.63561
M204 S3000
M205 X10 Y10
G0 F3000 X27.209 Y135.707
M204 S1800
M205 X8 Y8
G1 F1500 X79.29 Y187.789 E333.06527
M204 S3000
M205 X10 Y10
G0 F3000 X80.082 Y187.789
M204 S1800
M205 X8 Y8
G1 F1500 X27.209 Y134.915 E336.54708
M204 S3000
M205 X10 Y10
G0 F3000 X27.209 Y134.124
M204 S1800
M205 X8 Y8
G1 F1500 X80.874 Y187.789 E340.08101
M204 S3000
M205 X10 Y10
G0 F3000 X81.666 Y187.789
M204 S1800
M205 X8 Y8
G1 F1500 X27.209 Y133.332 E343.6671
M204 S3000
M205 X10 Y10
G0 F3000 X27.209 Y132.54
M204 S1800
M205 X8 Y8
G1 F1500 X82.458 Y187.789 E347.30534
M204 S3000
M205 X10 Y10
G0 F3000 X83.25 Y187.789
M204 S1800
M205 X8 Y8
G1 F1500 X27.209 Y131.748 E350.99573
M204 S3000
M205 X10 Y10
G0 F3000 X27.209 Y130.956
M204 S1800
M205 X8 Y8
G1 F1500 X84.042 Y187.789 E354.73828
M204 S3000
M205 X10 Y10
G0 F3000 X84.834 Y187.789
M204 S1800
M205 X8 Y8
G1 F1500 X27.209 Y130.164 E358.53299
M204 S3000
M205 X10 Y10
G0 F3000 X27.209 Y129.372
M204 S1800
M205 X8 Y8
G1 F1500 X85.626 Y187.789 E362.37985
M204 S3000
M205 X10 Y10
G0 F3000 X86.418 Y187.789
M204 S1800
M205 X8 Y8
G1 F1500 X27.209 Y128.58 E366.27886
M204 S3000
M205 X10 Y10
G0 F3000 X27.209 Y127.788
M204 S1800
M205 X8 Y8
G1 F1500 X87.21 Y187.789 E370.23003
M204 S3000
M205 X10 Y10
G0 F3000 X88.002 Y187.789
M204 S1800
M205 X8 Y8
G1 F1500 X27.209 Y126.996 E374.23335
M204 S3000
M205 X10 Y10
G0 F3000 X27.209 Y126.204
M204 S1800
M205 X8 Y8
