;FLAVOR:Marlin
;TIME:30812
;Filament used: 44.8923m
;Layer height: 0.3
;MINX:19.568
;MINY:14.567
;MINZ:0.2
;MAXX:190.432
;MAXY:195.432
;MAXZ:23
;Generated with Cura_SteamEngine 4.8.0
M140 S60
M105
M190 S60
M104 S210
M105
M109 S210
M82 ;absolute extrusion mode
G21 ;metric values
G90 ;absolute positioning
M82 ;set extruder to absolute mode
M107 ;start with the fan off
G28 X0 Y0 ;move X/Y to min endstops
G28 Z0 ;move Z to min endstops
G1 Z15.0 F100 ;move the platform down 15mm
G92 E0 ;zero the extruded length
G1 F200 E3 ;extrude 3mm of feed stock
G92 E0 ;zero the extruded length again
G1 F100
G0 Y20 F100
M117 Printing...
G5
G92 E0
G92 E0
G1 F2400 E-6
;LAYER_COUNT:77
;LAYER:0
M106 S255
M204 S3000
M205 X10 Y10
G1 F600 Z0.275
G0 F3000 X21.038 Y16.925 Z0.275
M204 S1800
M205 X8 Y8
;TYPE:SKIRT
G1 F600 Z0.2
G1 F2400 E0
G1 X21.523 Y16.398 E0.03335
G1 X22.063 Y15.929 E0.06665
G1 X22.652 Y15.524 E0.09994
G1 X23.282 Y15.186 E0.13323
G1 X23.947 Y14.921 E0.16656
G1 X24.637 Y14.732 E0.19988
G1 X25.343 Y14.621 E0.23315
G1 X25.843 Y14.591 E0.25648
G1 X26.877 Y14.569 E0.30464
G1 X27.489 Y14.567 E0.33313
G1 X33.696 Y14.594 E0.62216
G1 X176.775 Y14.593 E7.28452
G1 X182.568 Y14.568 E7.55427
G1 X183.462 Y14.571 E7.59589
G1 X184.117 Y14.582 E7.6264
G1 X184.831 Y14.634 E7.65973
G1 X185.534 Y14.765 E7.69303
G1 X186.218 Y14.974 E7.72634
G1 X186.875 Y15.258 E7.75966
G1 X187.495 Y15.613 E7.79293
G1 X188.072 Y16.036 E7.82624
G1 X188.599 Y16.52 E7.85956
G1 X189.068 Y17.06 E7.89287
G1 X189.474 Y17.649 E7.92618
G1 X189.812 Y18.279 E7.95947
G1 X190.077 Y18.943 E7.99276
G1 X190.266 Y19.633 E8.02607
G1 X190.378 Y20.34 E8.0594
G1 X190.408 Y20.838 E8.08263
G1 X190.431 Y21.915 E8.1328
G1 X190.432 Y22.754 E8.17186
G1 X190.406 Y28.401 E8.43481
G1 X190.407 Y182.119 E15.59257
G1 X190.432 Y187.609 E15.84821
G1 X190.429 Y188.383 E15.88425
G1 X190.417 Y189.116 E15.91838
G1 X190.365 Y189.829 E15.95167
G1 X190.235 Y190.532 E15.98496
G1 X190.026 Y191.217 E16.01831
G1 X189.742 Y191.873 E16.0516
G1 X189.387 Y192.494 E16.0849
G1 X188.965 Y193.071 E16.11819
G1 X188.481 Y193.598 E16.15151
G1 X187.941 Y194.067 E16.18481
G1 X187.353 Y194.474 E16.21811
G1 X186.722 Y194.812 E16.25144
G1 X186.058 Y195.077 E16.28473
G1 X185.368 Y195.267 E16.31806
G1 X184.662 Y195.379 E16.35134
G1 X184.157 Y195.409 E16.3749
G1 X183.107 Y195.431 E16.4238
G1 X182.211 Y195.432 E16.46553
G1 X176.304 Y195.406 E16.74058
G1 X33.225 Y195.407 E23.40294
G1 X27.432 Y195.432 E23.67269
G1 X26.536 Y195.429 E23.71441
G1 X25.888 Y195.418 E23.74459
G1 X25.175 Y195.366 E23.77788
G1 X24.472 Y195.235 E23.81118
G1 X23.788 Y195.026 E23.84448
G1 X23.131 Y194.742 E23.87781
G1 X22.511 Y194.386 E23.9111
G1 X21.934 Y193.964 E23.94438
G1 X21.407 Y193.479 E23.97773
G1 X20.938 Y192.939 E24.01104
G1 X20.532 Y192.35 E24.04435
G1 X20.195 Y191.72 E24.07762
G1 X19.949 Y191.113 E24.10812
G1 X19.751 Y190.426 E24.14141
G1 X19.631 Y189.721 E24.17471
G1 X19.592 Y189.14 E24.20182
G1 X19.569 Y188.055 E24.25236
G1 X19.568 Y187.246 E24.29003
G1 X19.594 Y181.599 E24.55298
G1 X19.593 Y27.881 E31.71073
G1 X19.568 Y22.306 E31.97033
G1 X19.571 Y21.577 E32.00427
G1 X19.583 Y20.879 E32.03678
G1 X19.635 Y20.166 E32.07007
G1 X19.767 Y19.463 E32.10338
G1 X19.976 Y18.779 E32.13668
G1 X20.26 Y18.122 E32.17001
G1 X20.616 Y17.502 E32.2033
G1 X21.038 Y16.925 E32.23658
M204 S3000
M205 X10 Y10
G0 F3000 X21.59 Y17.14
M204 S1800
M205 X8 Y8
G1 F2400 X22.069 Y16.654 E32.26836
G1 X22.602 Y16.226 E32.30019
G1 X23.182 Y15.864 E32.33202
G1 X23.799 Y15.572 E32.36381
G1 X24.447 Y15.354 E32.39565
G1 X25.116 Y15.214 E32.42747
G1 X25.855 Y15.15 E32.46201
G1 X26.879 Y15.129 E32.5097
G1 X27.486 Y15.127 E32.53797
G1 X33.693 Y15.154 E32.82699
G1 X176.778 Y15.153 E39.48963
G1 X182.567 Y15.128 E39.75919
G1 X183.453 Y15.131 E39.80045
G1 X184.108 Y15.142 E39.83095
G1 X184.789 Y15.193 E39.86275
G1 X185.46 Y15.324 E39.89459
G1 X186.111 Y15.532 E39.92641
G1 X186.733 Y15.815 E39.95823
G1 X187.318 Y16.168 E39.99005
G1 X187.857 Y16.587 E40.02183
G1 X188.344 Y17.067 E40.05367
G1 X188.771 Y17.599 E40.08544
G1 X189.134 Y18.179 E40.1173
G1 X189.426 Y18.796 E40.14909
G1 X189.644 Y19.444 E40.18092
G1 X189.785 Y20.112 E40.21271
G1 X189.849 Y20.851 E40.24725
G1 X189.87 Y21.793 E40.29112
G1 X189.872 Y22.752 E40.33578
G1 X189.846 Y28.399 E40.59873
G1 X189.847 Y182.119 E47.75658
G1 X189.872 Y187.607 E48.01212
G1 X189.869 Y188.374 E48.04784
G1 X189.857 Y189.107 E48.08198
G1 X189.806 Y189.788 E48.11377
G1 X189.676 Y190.459 E48.1456
G1 X189.468 Y191.109 E48.17738
G1 X189.186 Y191.732 E48.20922
G1 X188.832 Y192.317 E48.24106
G1 X188.413 Y192.856 E48.27285
G1 X187.934 Y193.343 E48.30466
G1 X187.402 Y193.771 E48.33645
G1 X186.822 Y194.134 E48.36831
G1 X186.205 Y194.426 E48.4001
G1 X185.558 Y194.644 E48.43189
G1 X184.889 Y194.786 E48.46373
G1 X184.145 Y194.85 E48.49851
G1 X183.227 Y194.87 E48.54126
G1 X182.213 Y194.872 E48.58848
G1 X176.306 Y194.846 E48.86354
G1 X33.222 Y194.847 E55.52613
G1 X27.433 Y194.872 E55.79569
G1 X26.546 Y194.869 E55.83699
G1 X25.898 Y194.858 E55.86717
G1 X25.217 Y194.807 E55.89897
G1 X24.546 Y194.676 E55.9308
G1 X23.895 Y194.468 E55.96263
G1 X23.273 Y194.185 E55.99445
G1 X22.689 Y193.831 E56.02624
G1 X22.149 Y193.412 E56.05807
G1 X21.662 Y192.933 E56.08988
G1 X21.235 Y192.4 E56.12168
G1 X20.873 Y191.82 E56.15352
G1 X20.485 Y190.948 E56.19796
G1 X20.29 Y190.271 E56.23076
G1 X20.181 Y189.597 E56.26255
G1 X20.151 Y189.128 E56.28444
G1 X20.13 Y188.176 E56.32878
G1 X20.128 Y187.248 E56.37199
G1 X20.154 Y181.601 E56.63494
G1 X20.153 Y27.881 E63.79279
G1 X20.128 Y22.308 E64.05229
G1 X20.131 Y21.587 E64.08587
G1 X20.143 Y20.889 E64.11837
G1 X20.195 Y20.207 E64.15022
G1 X20.325 Y19.537 E64.182
G1 X20.534 Y18.886 E64.21384
G1 X20.817 Y18.264 E64.24566
G1 X21.17 Y17.68 E64.27743
G1 X21.59 Y17.14 E64.30929
M204 S3000
M205 X10 Y10
G0 F3000 X21.724 Y17.867
M204 S1800
M205 X8 Y8
G1 F2400 X22.14 Y17.367 E64.33957
G1 X22.614 Y16.923 E64.36982
G1 X23.138 Y16.54 E64.40004
G1 X23.706 Y16.225 E64.43028
G1 X24.309 Y15.981 E64.46057
G1 X24.936 Y15.814 E64.49079
G1 X25.867 Y15.71 E64.53441
G1 X26.881 Y15.689 E64.58163
G1 X27.484 Y15.687 E64.60971
G1 X33.691 Y15.714 E64.89874
G1 X176.78 Y15.713 E71.56156
G1 X182.565 Y15.688 E71.83094
G1 X183.444 Y15.691 E71.87187
G1 X184.099 Y15.702 E71.90237
G1 X184.746 Y15.753 E71.93259
G1 X185.383 Y15.883 E71.96286
G1 X185.998 Y16.09 E71.99308
G1 X186.584 Y16.371 E72.02334
G1 X187.131 Y16.722 E72.05361
G1 X187.63 Y17.137 E72.08383
G1 X188.075 Y17.611 E72.1141
G1 X188.458 Y18.136 E72.14436
G1 X188.773 Y18.703 E72.17456
G1 X189.017 Y19.306 E72.20485
G1 X189.185 Y19.933 E72.23508
G1 X189.289 Y20.863 E72.27865
G1 X189.311 Y21.916 E72.3277
G1 X189.312 Y22.749 E72.36648
G1 X189.286 Y28.396 E72.62943
G1 X189.287 Y182.119 E79.78742
G1 X189.312 Y187.605 E80.04288
G1 X189.309 Y188.364 E80.07822
G1 X189.297 Y189.097 E80.11235
G1 X189.247 Y189.745 E80.14262
G1 X189.117 Y190.382 E80.17289
G1 X188.91 Y190.997 E80.20311
G1 X188.629 Y191.583 E80.23337
G1 X188.278 Y192.13 E80.26363
G1 X187.863 Y192.629 E80.29385
G1 X187.39 Y193.074 E80.32409
G1 X186.865 Y193.458 E80.35438
G1 X186.298 Y193.774 E80.3846
G1 X185.696 Y194.017 E80.41483
G1 X185.068 Y194.186 E80.44512
G1 X184.133 Y194.29 E80.48892
G1 X183.106 Y194.311 E80.53675
G1 X182.216 Y194.312 E80.5782
G1 X176.309 Y194.286 E80.85325
G1 X33.22 Y194.287 E87.51608
G1 X27.435 Y194.312 E87.78545
G1 X26.555 Y194.309 E87.82643
G1 X25.907 Y194.298 E87.85661
G1 X25.26 Y194.247 E87.88683
G1 X24.623 Y194.117 E87.9171
G1 X24.008 Y193.91 E87.94732
G1 X23.422 Y193.629 E87.97758
G1 X22.876 Y193.278 E88.0078
G1 X22.376 Y192.862 E88.03809
G1 X21.932 Y192.388 E88.06833
G1 X21.549 Y191.864 E88.09855
G1 X21.233 Y191.296 E88.12882
G1 X21.006 Y190.743 E88.15665
G1 X20.83 Y190.118 E88.18689
G1 X20.732 Y189.476 E88.21713
G1 X20.711 Y189.115 E88.23397
G1 X20.689 Y188.054 E88.28338
G1 X20.688 Y187.251 E88.32077
G1 X20.714 Y181.604 E88.58373
G1 X20.713 Y27.881 E95.74171
G1 X20.688 Y22.309 E96.00117
G1 X20.691 Y21.596 E96.03437
G1 X20.703 Y20.898 E96.06688
G1 X20.754 Y20.251 E96.0971
G1 X20.884 Y19.614 E96.12737
G1 X21.092 Y18.999 E96.1576
G1 X21.373 Y18.413 E96.18786
G1 X21.724 Y17.867 E96.21809
M204 S3000
M205 X10 Y10
G1 F2400 E90.21809
;MESH:top v11.stl
G0 F3000 X27.585 Y20.303
G0 X27.59 Y21.827
G0 X58.42 Y34.6
M204 S1800
M205 X8 Y8
;TYPE:WALL-INNER
G1 F2400 E96.21809
G1 F1500 X52.6 Y40.42 E96.60134
G1 X52.6 Y51.58 E97.121
G1 X58.42 Y57.4 E97.50426
G1 X69.58 Y57.4 E98.02391
G1 X75.4 Y51.58 E98.40717
G1 X75.4 Y40.42 E98.92683
G1 X69.58 Y34.6 E99.31008
G1 X58.42 Y34.6 E99.82974
M204 S3000
M205 X10 Y10
G0 F3000 X53.124 Y40.637
G0 X53.124 Y51.363
G0 X58.42 Y64.6
M204 S1800
M205 X8 Y8
G1 F1500 X52.6 Y70.42 E100.213
G1 X52.6 Y81.58 E100.73265
G1 X58.42 Y87.4 E101.11591
G1 X69.58 Y87.4 E101.63557
G1 X75.4 Y81.58 E102.01882
G1 X75.4 Y70.42 E102.53848
G1 X69.58 Y64.6 E102.92174
G1 X58.42 Y64.6 E103.44139
M204 S3000
M205 X10 Y10
G0 F3000 X53.124 Y70.637
G0 X53.124 Y81.363
G0 X58.42 Y94.6
M204 S1800
M205 X8 Y8
G1 F1500 X52.6 Y100.42 E103.82465
G1 X52.6 Y111.58 E104.34431
G1 X58.42 Y117.4 E104.72756
G1 X69.58 Y117.4 E105.24722
G1 X75.4 Y111.58 E105.63048
G1 X75.4 Y100.42 E106.15013
G1 X69.58 Y94.6 E106.53339
G1 X58.42 Y94.6 E107.05305
M204 S3000
M205 X10 Y10
G0 F3000 X53.124 Y100.637
G0 X53.124 Y111.363
G0 X58.42 Y124.6
M204 S1800
M205 X8 Y8
G1 F1500 X52.6 Y130.42 E107.4363
G1 X52.6 Y141.58 E107.95596
G1 X58.42 Y147.4 E108.33922
G1 X69.58 Y147.4 E108.85887
G1 X75.4 Y141.58 E109.24213
G1 X75.4 Y130.42 E109.76179
G1 X69.58 Y124.6 E110.14504
G1 X58.42 Y124.6 E110.6647
M204 S3000
M205 X10 Y10
G0 F3000 X88.42 Y124.6
M204 S1800
M205 X8 Y8
G1 F1500 X82.6 Y130.42 E111.04796
G1 X82.6 Y141.58 E111.56761
G1 X88.42 Y147.4 E111.95087
G1 X99.58 Y147.4 E112.47053
G1 X105.4 Y141.58 E112.85378
G1 X105.4 Y130.42 E113.37344
G1 X99.58 Y124.6 E113.7567
G1 X88.42 Y124.6 E114.27635
M204 S3000
M205 X10 Y10
G0 F3000 X83.124 Y111.363
G0 X83.124 Y100.637
G0 X88.42 Y94.6
M204 S1800
M205 X8 Y8
G1 F1500 X82.6 Y100.42 E114.65961
G1 X82.6 Y111.58 E115.17927
G1 X88.42 Y117.4 E115.56252
G1 X99.58 Y117.4 E116.08218
G1 X105.4 Y111.58 E116.46544
G1 X105.4 Y100.42 E116.98509
G1 X99.58 Y94.6 E117.36835
G1 X88.42 Y94.6 E117.88801
M204 S3000
M205 X10 Y10
G0 F3000 X118.42 Y94.6
M204 S1800
M205 X8 Y8
G1 F1500 X112.6 Y100.42 E118.27126
G1 X112.6 Y111.58 E118.79092
G1 X118.42 Y117.4 E119.17418
G1 X129.58 Y117.4 E119.69383
G1 X135.4 Y111.58 E120.07709
G1 X135.4 Y100.42 E120.59675
G1 X129.58 Y94.6 E120.98
G1 X118.42 Y94.6 E121.49966
M204 S3000
M205 X10 Y10
G0 F3000 X148.42 Y94.6
M204 S1800
M205 X8 Y8
G1 F1500 X142.6 Y100.42 E121.88292
G1 X142.6 Y111.58 E122.40257
G1 X148.42 Y117.4 E122.78583
G1 X159.58 Y117.4 E123.30549
G1 X165.4 Y111.58 E123.68874
G1 X165.4 Y100.42 E124.2084
G1 X159.58 Y94.6 E124.59166
G1 X148.42 Y94.6 E125.11131
M204 S3000
M205 X10 Y10
G0 F3000 X143.124 Y81.363
G0 X143.124 Y70.637
G0 X148.42 Y64.6
M204 S1800
M205 X8 Y8
G1 F1500 X142.6 Y70.42 E125.49457
G1 X142.6 Y81.58 E126.01423
G1 X148.42 Y87.4 E126.39748
G1 X159.58 Y87.4 E126.91714
G1 X165.4 Y81.58 E127.3004
G1 X165.4 Y70.42 E127.82005
G1 X159.58 Y64.6 E128.20331
G1 X148.42 Y64.6 E128.72297
M204 S3000
M205 X10 Y10
G0 F3000 X118.42 Y64.6
M204 S1800
M205 X8 Y8
G1 F1500 X112.6 Y70.42 E129.10622
G1 X112.6 Y81.58 E129.62588
G1 X118.42 Y87.4 E130.00914
G1 X129.58 Y87.4 E130.52879
G1 X135.4 Y81.58 E130.91205
G1 X135.4 Y70.42 E131.43171
G1 X129.58 Y64.6 E131.81496
G1 X118.42 Y64.6 E132.33462
M204 S3000
M205 X10 Y10
G0 F3000 X88.42 Y64.6
M204 S1800
M205 X8 Y8
G1 F1500 X82.6 Y70.42 E132.71788
G1 X82.6 Y81.58 E133.23753
G1 X88.42 Y87.4 E133.62079
G1 X99.58 Y87.4 E134.14045
G1 X105.4 Y81.58 E134.5237
G1 X105.4 Y70.42 E135.04336
G1 X99.58 Y64.6 E135.42662
G1 X88.42 Y64.6 E135.94627
M204 S3000
M205 X10 Y10
G0 F3000 X83.124 Y51.363
G0 X83.124 Y40.637
G0 X88.42 Y34.6
M204 S1800
M205 X8 Y8
G1 F1500 X82.6 Y40.42 E136.32953
G1 X82.6 Y51.58 E136.84918
G1 X88.42 Y57.4 E137.23244
G1 X99.58 Y57.4 E137.7521
G1 X105.4 Y51.58 E138.13536
G1 X105.4 Y40.42 E138.65501
G1 X99.58 Y34.6 E139.03827
G1 X88.42 Y34.6 E139.55792
M204 S3000
M205 X10 Y10
G0 F3000 X118.42 Y34.6
M204 S1800
M205 X8 Y8
G1 F1500 X112.6 Y40.42 E139.94118
G1 X112.6 Y51.58 E140.46084
G1 X118.42 Y57.4 E140.8441
G1 X129.58 Y57.4 E141.36375
G1 X135.4 Y51.58 E141.74701
G1 X135.4 Y40.42 E142.26666
G1 X129.58 Y34.6 E142.64992
G1 X118.42 Y34.6 E143.16958
M204 S3000
M205 X10 Y10
G0 F3000 X148.42 Y34.6
M204 S1800
M205 X8 Y8
G1 F1500 X142.6 Y40.42 E143.55283
G1 X142.6 Y51.58 E144.07249
G1 X148.42 Y57.4 E144.45575
G1 X159.58 Y57.4 E144.9754
G1 X165.4 Y51.58 E145.35866
G1 X165.4 Y40.42 E145.87832
G1 X159.58 Y34.6 E146.26157
G1 X148.42 Y34.6 E146.78123
M204 S3000
M205 X10 Y10
G0 F3000 X182.606 Y28.092
M204 S1800
M205 X8 Y8
G1 F1500 X182.606 Y181.908 E153.94355
G1 X182.632 Y187.461 E154.20212
G1 X182.632 Y187.632 E154.21008
G1 X182.412 Y187.633 E154.22033
G1 X182.241 Y187.633 E154.22829
G1 X176.582 Y187.606 E154.4918
G1 X33.418 Y187.606 E161.15812
G1 X27.76 Y187.632 E161.42158
G1 X27.59 Y187.632 E161.4295
G1 X27.367 Y187.631 E161.43988
G1 X27.367 Y187.461 E161.4478
G1 X27.394 Y181.908 E161.70637
G1 X27.394 Y28.092 E168.86869
G1 X27.368 Y22.539 E169.12726
G1 X27.368 Y22.368 E169.13522
G1 X27.588 Y22.367 E169.14547
G1 X27.759 Y22.367 E169.15343
G1 X33.418 Y22.394 E169.41694
G1 X176.582 Y22.394 E176.08326
G1 X182.24 Y22.368 E176.34672
G1 X182.41 Y22.368 E176.35463
G1 X182.633 Y22.369 E176.36502
G1 X182.633 Y22.539 E176.37293
G1 X182.606 Y28.092 E176.63151
M204 S3000
M205 X10 Y10
G0 F3000 X159.363 Y65.124
G0 X148.637 Y65.124
G0 X143.124 Y70.637
G0 X134.876 Y111.363
G0 X124.466 Y125.124
G0 X118.637 Y125.124
G0 X113.124 Y130.637
G0 X111.6 Y146.6
M204 S1800
M205 X8 Y8
G1 F1500 X111.6 Y173.4 E177.87943
G1 X168.4 Y173.4 E180.52427
G1 X168.4 Y146.6 E181.77219
G1 X161.055 Y146.6 E182.11421
G1 X161.054 Y146.6 E182.11425
G1 X160.38 Y146.6 E182.14564
G1 X160.857 Y146.123 E182.16254
G1 X165.4 Y141.58 E182.46171
G1 X165.4 Y130.42 E182.98137
G1 X159.58 Y124.6 E183.36462
G1 X148.42 Y124.6 E183.88428
G1 X142.6 Y130.42 E184.26754
G1 X142.6 Y141.58 E184.78719
G1 X147.143 Y146.123 E185.08636
G1 X147.62 Y146.6 E185.11777
G1 X146.946 Y146.6 E185.13466
G1 X146.945 Y146.6 E185.13471
G1 X131.055 Y146.6 E185.87461
G1 X131.054 Y146.6 E185.87466
G1 X130.38 Y146.6 E185.90604
G1 X130.857 Y146.123 E185.92295
G1 X135.4 Y141.58 E186.22211
G1 X135.4 Y130.42 E186.74177
G1 X129.58 Y124.6 E187.12502
G1 X118.42 Y124.6 E187.64468
G1 X112.6 Y130.42 E188.02794
G1 X112.6 Y141.58 E188.54759
G1 X117.143 Y146.123 E188.84676
G1 X117.62 Y146.6 E188.87817
G1 X116.946 Y146.6 E188.89506
G1 X116.945 Y146.6 E188.89511
G1 X111.6 Y146.6 E189.14399
M204 S3000
M205 X10 Y10
G0 F3000 X112.16 Y147.16
M204 S1800
M205 X8 Y8
G1 F1500 X112.16 Y172.84 E190.33976
G1 X167.84 Y172.84 E192.93246
G1 X167.84 Y147.16 E194.12822
G1 X159.637 Y147.16 E194.51019
G1 X159.348 Y147.16 E194.52365
G1 X148.652 Y147.16 E195.0217
G1 X148.363 Y147.16 E195.03515
G1 X129.637 Y147.16 E195.90712
G1 X129.348 Y147.16 E195.92057
G1 X118.652 Y147.16 E196.41862
G1 X118.363 Y147.16 E196.43208
G1 X112.16 Y147.16 E196.72092
M204 S3000
M205 X10 Y10
G0 F3000 X112.09 Y147.09
G0 X113.124 Y130.637
G0 X118.614 Y125.068
G0 X118.652 Y125.16
M204 S1800
M205 X8 Y8
G1 F1500 X113.16 Y130.652 E197.08258
G1 X113.16 Y141.348 E197.58063
G1 X118.448 Y146.636 E197.92885
G1 X118.652 Y146.84 E197.93962
G1 X129.348 Y146.84 E198.22422
G1 X129.552 Y146.636 E198.23499
G1 X134.84 Y141.348 E198.58321
G1 X134.84 Y130.652 E199.08126
G1 X129.348 Y125.16 E199.44292
G1 X118.652 Y125.16 E199.94097
M204 S3000
M205 X10 Y10
G0 F3000 X118.614 Y125.068
G0 X148.614 Y125.068
G0 X148.652 Y125.16
M204 S1800
M205 X8 Y8
G1 F1500 X143.16 Y130.652 E200.30263
G1 X143.16 Y141.348 E200.80068
G1 X148.448 Y146.636 E201.1489
G1 X148.652 Y146.84 E201.15967
G1 X159.348 Y146.84 E201.44427
G1 X159.552 Y146.636 E201.45504
G1 X164.84 Y141.348 E201.80327
G1 X164.84 Y130.652 E202.30132
G1 X159.348 Y125.16 E202.66298
G1 X148.652 Y125.16 E203.16103
M204 S3000
M205 X10 Y10
G0 F3000 X148.614 Y125.068
G0 X143.124 Y111.363
G0 X143.124 Y100.637
